icons/op-whiteboards-16.svg

<svg width="16" height="16" viewBox="0 0 16 16" fill="none" xmlns="http://www.w3.org/2000/svg">
<g clip-path="url(#clip0_4041_146)">
<path d="M7 10.4128C7.316 10.4128 7.59799 10.5611 7.78125 10.7936C7.91822 10.9674 8 11.1884 8 11.4284V11.9362C8 12.1212 7.95126 12.2946 7.86621 12.444C7.69331 12.7476 7.37014 12.9518 7 12.9518H4.5C4.31786 12.9518 4.14709 12.9025 4 12.8161C3.8482 12.7269 3.7216 12.5982 3.63379 12.444C3.54874 12.2946 3.5 12.1212 3.5 11.9362V11.4284C3.5 11.1884 3.58178 10.9674 3.71875 10.7936C3.79636 10.6952 3.89194 10.612 4 10.5485C4.14709 10.4621 4.31786 10.4128 4.5 10.4128H7Z" fill="#636C76"/>
<path d="M12 6.48795C12.1821 6.48795 12.3529 6.53725 12.5 6.62369C12.6081 6.68722 12.7036 6.77033 12.7812 6.86881C12.9182 7.04264 13 7.26359 13 7.50357V11.3053C12.9999 11.6812 12.7988 12.0096 12.5 12.1852C12.3529 12.2716 12.1821 12.321 12 12.321H10C9.76383 12.321 9.54707 12.2374 9.37598 12.0983C9.14711 11.9122 9.00009 11.6263 9 11.3053V7.50357C9 7.26359 9.08178 7.04264 9.21875 6.86881C9.26502 6.81009 9.31818 6.75663 9.37598 6.70963C9.54704 6.57066 9.76393 6.48795 10 6.48795H12Z" fill="#636C76"/>
<path d="M6.5 5.84049C6.73608 5.84049 6.95296 5.92416 7.12402 6.06314C7.18183 6.11015 7.23497 6.16359 7.28125 6.22232C7.41822 6.39615 7.5 6.61711 7.5 6.85709V8.38053C7.5 8.62051 7.41822 8.84146 7.28125 9.01529C7.23499 9.07398 7.1818 9.12749 7.12402 9.17447C6.95297 9.31342 6.73604 9.39615 6.5 9.39615H4C3.81786 9.39615 3.64709 9.34684 3.5 9.26041C3.39194 9.1969 3.29636 9.11375 3.21875 9.01529C3.08178 8.84146 3 8.62051 3 8.38053V6.85709C3 6.61711 3.08178 6.39615 3.21875 6.22232C3.29635 6.12384 3.39193 6.04074 3.5 5.97721C3.64709 5.89077 3.81786 5.84049 4 5.84049H6.5Z" fill="#636C76"/>
<path fill-rule="evenodd" clip-rule="evenodd" d="M7.62988 0.0992762C7.8973 -0.0550572 8.23719 -0.0295268 8.48047 0.176425L11.4805 2.71549C11.5089 2.7396 11.5346 2.76638 11.5586 2.79361H14.25C14.3057 2.79361 14.3607 2.79625 14.415 2.80142C14.4248 2.80236 14.4346 2.80326 14.4443 2.80435C14.4965 2.81022 14.548 2.81835 14.5986 2.82877L14.6035 2.82974C14.6572 2.84095 14.71 2.85469 14.7617 2.87076C14.7693 2.87311 14.7766 2.87612 14.7842 2.87857C14.8299 2.89347 14.8749 2.90984 14.9189 2.92838C14.9255 2.93115 14.9319 2.93432 14.9385 2.93717C15.0224 2.97373 15.1031 3.0162 15.1797 3.0651C15.1867 3.06957 15.1933 3.07518 15.2002 3.07974C15.2357 3.10315 15.27 3.12807 15.3037 3.15396C15.3194 3.166 15.3354 3.17755 15.3506 3.1901C15.494 3.30824 15.618 3.44914 15.7188 3.60709C15.723 3.61371 15.7283 3.61993 15.7324 3.62662C15.7798 3.70319 15.8208 3.784 15.8564 3.86783C15.8604 3.87723 15.8643 3.88667 15.8682 3.89615C15.9066 3.99107 15.9381 4.08973 15.96 4.19205C15.9638 4.20981 15.9665 4.22781 15.9697 4.24576C15.9758 4.27932 15.9811 4.31314 15.9854 4.34732C15.9882 4.36998 15.9902 4.39277 15.9922 4.41568C15.9966 4.46689 16 4.51861 16 4.57096V14.2223C15.9999 14.6937 15.8154 15.1459 15.4873 15.4792C15.1591 15.8125 14.7141 15.9997 14.25 15.9997H1.75C1.69398 15.9997 1.6383 15.9963 1.58301 15.9909C1.56727 15.9893 1.55179 15.986 1.53613 15.984C1.49949 15.9795 1.46291 15.9753 1.42676 15.9684C1.40602 15.9645 1.38578 15.9585 1.36523 15.9538C1.32914 15.9455 1.29324 15.937 1.25781 15.9264C1.2424 15.9218 1.22718 15.9168 1.21191 15.9118C1.17596 15.9 1.14057 15.8869 1.10547 15.8727C1.0888 15.866 1.07212 15.8594 1.05566 15.8522C1.02393 15.8383 0.992802 15.8231 0.961914 15.8073C0.94196 15.797 0.921914 15.787 0.902344 15.776C0.871807 15.7588 0.84203 15.7404 0.8125 15.7213C0.797102 15.7114 0.781707 15.7015 0.766602 15.6911C0.738882 15.6719 0.712223 15.6513 0.685547 15.6305C0.667449 15.6164 0.648448 15.6034 0.630859 15.5885L0.625977 15.5846C0.586854 15.5513 0.549078 15.5161 0.512695 15.4792C0.476159 15.442 0.441119 15.4029 0.408203 15.3629L0.396484 15.3483C0.387405 15.337 0.379883 15.3246 0.371094 15.3131C0.349097 15.2845 0.326795 15.2561 0.306641 15.2262C0.291826 15.2043 0.278449 15.1814 0.264648 15.1588C0.249637 15.1343 0.234496 15.1099 0.220703 15.0846C0.207006 15.0596 0.194117 15.0341 0.181641 15.0085C0.171132 14.9868 0.160998 14.9651 0.151367 14.943C0.14025 14.9176 0.130047 14.8918 0.120117 14.8659C0.109108 14.8371 0.0983939 14.8083 0.0888672 14.779C0.0818055 14.7572 0.074595 14.7355 0.0683594 14.7135C0.0588749 14.6801 0.0514903 14.646 0.0439453 14.612C0.0394165 14.5915 0.0350701 14.5711 0.03125 14.5504C0.0240059 14.5113 0.0183286 14.472 0.0136719 14.4323C0.0119883 14.4179 0.00915334 14.4037 0.0078125 14.3893C0.00266709 14.334 1.28398e-05 14.2783 0 14.2223V4.57096C4.06163e-06 4.51963 0.00262811 4.46884 0.00683594 4.41861C0.00914613 4.39103 0.0130645 4.36379 0.0166016 4.33658C0.0202211 4.30874 0.0234463 4.28099 0.0283203 4.25357C0.031985 4.23296 0.0356803 4.21241 0.0400391 4.19205C0.0616302 4.09118 0.0922096 3.99375 0.129883 3.90006C0.134578 3.88838 0.138623 3.87645 0.143555 3.8649C0.179479 3.78075 0.221753 3.69953 0.269531 3.62271C0.274494 3.61474 0.280073 3.60716 0.285156 3.59928C0.315334 3.55245 0.347565 3.50716 0.381836 3.46353C0.384004 3.46077 0.385511 3.45749 0.387695 3.45474C0.465374 3.35706 0.553373 3.26817 0.649414 3.18912C0.662884 3.17803 0.677611 3.16855 0.691406 3.15787C0.726209 3.13092 0.761073 3.10404 0.797852 3.07974C0.804211 3.07554 0.810967 3.07117 0.817383 3.06705C0.884816 3.02379 0.955094 2.98458 1.02832 2.95084L1.06934 2.93326C1.07256 2.93188 1.07587 2.93072 1.0791 2.92935C1.17779 2.88765 1.28087 2.85457 1.3877 2.8317C1.39998 2.82907 1.41243 2.82723 1.4248 2.82486C1.46409 2.81735 1.50378 2.8111 1.54395 2.80631C1.55823 2.8046 1.57252 2.80278 1.58691 2.80142C1.64063 2.79637 1.695 2.79361 1.75 2.79361H4.44141C4.46543 2.76638 4.49107 2.7396 4.51953 2.71549L7.51953 0.176425L7.62988 0.0992762ZM1.75 4.31705C1.68376 4.31705 1.62011 4.34373 1.57324 4.39127C1.52639 4.43886 1.50004 4.50365 1.5 4.57096V14.2223C1.50022 14.3623 1.61214 14.4762 1.75 14.4762H14.25C14.3163 14.4762 14.3799 14.4487 14.4268 14.401C14.4734 14.3535 14.4999 14.2894 14.5 14.2223V4.57096C14.5 4.50365 14.4736 4.43886 14.4268 4.39127C14.3799 4.34373 14.3162 4.31705 14.25 4.31705H1.75ZM6.77148 2.79361H9.22852L8 1.75357L6.77148 2.79361Z" fill="#636C76"/>
</g>
<defs>
<clipPath id="clip0_4041_146">
<rect width="16" height="16" fill="white"/>
</clipPath>
</defs>
</svg>

<svg xmlns="http://www.w3.org/2000/svg" width="16" height="16" viewBox="0 0 16 16"><path d="M7 10.413a.99.99 0 0 1 .781.381c.137.173.219.394.219.634v.508c0 .185-.049.359-.134.508a1 1 0 0 1-.866.508H4.5a1 1 0 0 1-.5-.136 1.01 1.01 0 0 1-.5-.88v-.508a1.02 1.02 0 0 1 .5-.879 1 1 0 0 1 .5-.136Zm5-3.925c.182 0 .353.049.5.136a1.02 1.02 0 0 1 .5.88v3.801c0 .376-.201.705-.5.88a1 1 0 0 1-.5.136h-2a1 1 0 0 1-.624-.223A1.02 1.02 0 0 1 9 11.305V7.504a1.02 1.02 0 0 1 .376-.794A1 1 0 0 1 10 6.488ZM6.5 5.84a.99.99 0 0 1 .781.382c.137.174.219.395.219.635v1.524a1.02 1.02 0 0 1-.376.793 1 1 0 0 1-.624.222H4a1 1 0 0 1-.5-.136 1.02 1.02 0 0 1-.5-.879V6.857a1.02 1.02 0 0 1 .5-.88A1 1 0 0 1 4 5.84Z"/><path d="M7.63.099a.74.74 0 0 1 .85.077l3.001 2.539a1 1 0 0 1 .078.079h2.691a2 2 0 0 1 .349.035l.005.001a1.8 1.8 0 0 1 .576.235l.02.015a2 2 0 0 1 .151.11q.216.179.368.417l.013.02q.072.115.124.241l.012.028a1.8 1.8 0 0 1 .132.675v9.651c0 .472-.185.924-.513 1.257A1.74 1.74 0 0 1 14.25 16H1.75q-.084 0-.167-.009l-.047-.007q-.055-.007-.109-.016l-.062-.014a1 1 0 0 1-.107-.028l-.046-.014-.107-.039-.049-.021a1.6 1.6 0 0 1-.244-.131l-.045-.03a1 1 0 0 1-.081-.061q-.029-.02-.055-.041l-.005-.004a2 2 0 0 1-.218-.222l-.012-.015-.025-.035a1.4 1.4 0 0 1-.106-.154q-.024-.037-.044-.074l-.039-.076-.031-.066-.031-.077q-.017-.044-.031-.087l-.021-.065-.024-.102-.013-.062-.017-.118q-.004-.02-.006-.043A2 2 0 0 1 0 14.222V4.571a2 2 0 0 1 .017-.234q.004-.042.011-.083l.012-.062q.033-.151.09-.292l.014-.035q.053-.126.126-.242l.015-.024q.046-.07.097-.135l.006-.009q.116-.147.261-.266l.042-.031q.052-.041.107-.078l.019-.013q.102-.065.211-.116l.041-.018.01-.004a1.8 1.8 0 0 1 .508-.128q.08-.007.163-.007h2.691a1 1 0 0 1 .079-.079l3-2.539ZM1.75 4.317a.25.25 0 0 0-.25.254v9.651c0 .14.112.254.25.254h12.5c.066 0 .13-.027.177-.075a.26.26 0 0 0 .073-.179V4.571a.25.25 0 0 0-.25-.254Zm5.021-1.523h2.458L8 1.754Z"/></svg>
